packages/core/src/svgs/tokens/mono/KASTA.svg

<svg width="24" height="24" viewBox="0 0 24 24" fill="none" xmlns="http://www.w3.org/2000/svg">
<path d="M2 6.47388H4.10521V12.7368L6.95776 9.63168H9.36815L5.98937 13.3158L9.36815 16.9999H6.95776L4.10521 13.8894V16.9999H2V6.47388Z" fill="white"/>
<path d="M20.4212 17.5261C21.2932 17.5261 22.0002 16.8192 22.0002 15.9472C22.0002 15.0751 21.2932 14.3683 20.4212 14.3683C19.5493 14.3683 18.8423 15.0751 18.8423 15.9472C18.8423 16.8192 19.5493 17.5261 20.4212 17.5261Z" fill="white"/>
<path fill-rule="evenodd" clip-rule="evenodd" d="M17.7886 17.5261V13.5788C17.7886 12.2631 17.0306 9.63159 13.9992 9.63159C10.6151 9.63159 9.89404 12.6262 9.89404 13.5788C9.89404 14.7157 10.5256 17.5261 13.4571 17.5261C15.1729 17.5261 15.636 16.2577 15.6834 16.0735V17.5261H17.7886ZM13.8413 15.4208C14.3298 15.4208 14.7984 15.2268 15.1439 14.8814C15.4893 14.5359 15.6834 14.0674 15.6834 13.5788C15.6834 13.0903 15.4893 12.6218 15.1439 12.2763C14.7984 11.9309 14.3298 11.7367 13.8413 11.7367C13.3528 11.7367 12.8842 11.9309 12.5387 12.2763C12.1933 12.6218 11.9993 13.0903 11.9993 13.5788C11.9993 14.0674 12.1933 14.5359 12.5387 14.8814C12.8842 15.2268 13.3528 15.4208 13.8413 15.4208Z" fill="white"/>
</svg>

<svg xmlns="http://www.w3.org/2000/svg" width="24" height="24" fill="none" viewBox="0 0 24 24">
    <path fill="#fff" d="M2 6.474h2.105v6.263l2.853-3.105h2.41L5.99 13.316 9.37 17H6.957l-2.853-3.11V17H2zm18.421 11.052a1.579 1.579 0 1 0 0-3.158 1.579 1.579 0 0 0 0 3.158"/>
    <path fill="#fff" fill-rule="evenodd" d="M17.789 17.526V13.58c0-1.316-.758-3.947-3.79-3.947-3.384 0-4.105 2.994-4.105 3.947 0 1.137.632 3.947 3.563 3.947 1.716 0 2.179-1.268 2.226-1.453v1.453zm-3.948-2.105a1.842 1.842 0 1 0 0-3.685 1.842 1.842 0 0 0 0 3.685" clip-rule="evenodd"/>
</svg>
